X:1
T:Title
%%score { ( 1 3 ) | ( 2 4 ) }
L:1/8
M:6/4
K:Db
V:1 treble nm="Grand Piano"
V:3 treble 
V:2 bass 
V:4 bass 
V:1
 z6 z4[Q:1/4=150] [FA]2 | [Fd]3 [Gc] [CGB]2 [DFA]2 [A,EG]2 [A,DF]2 | A6 z6 | %3
 [EG]3 [=DF] [EG]2 [GB]2 [FA]2 [EG]2 |[M:5/4] [DF]2- [DF]2- [DF]6 |[M:1/4] [DF]2 | %6
[M:6/4] [EF]3 [EF] [EF]2 [=A,EF]2 [CE=A]2 [A,Ec]2 | [DB]6 [Fd]4 [FB]2 | %8
 [=Ge]3 [DGB] [EGc]2 [FGd]2 [EGc]2 [DGB]2 |[M:5/4] [CA]2- [CA]2- [CA]6 |[M:1/4] [GA]2 | %11
[M:6/4] [Fd]6 z6 | [FA]2 [EG]2 [=DF]2 [EG]4 G2 | e6 z6 |[M:5/4] [Fe]2 [Fd]2 [_FB]2 [A,=FA]4 | %15
[M:1/4] A2 |[M:6/4] B2 d2 B2 A2 d2 A2 | G2 c2 G2 F2 B2 A2 | %18
[M:7/4] [D=GB]2 [CGc]2 [Gd]2 [_Ge]6 [Fdf]2[Q:1/4=148][Q:1/4=145][Q:1/4=143][Q:1/4=141][Q:1/4=138][Q:1/4=136][Q:1/4=134][Q:1/4=131][Q:1/4=129][Q:1/4=127][Q:1/4=124][Q:1/4=122][Q:1/4=120][Q:1/4=117][Q:1/4=115] | %19
[M:5/4] [Fdf]2- [Fdf]2- [Fdf]6 |] %20
V:2
 z6 z4 [D,A,]2 | [D,A,]3 [D,B,] D,2 D,2 D,2 D,2 | z6 E4 [A,,A,]2 | %3
 [A,,A,]3 [A,,A,] [A,,A,]2 [A,,A,]2 [B,,A,]2 [C,A,]2 |[M:5/4] [D,A,]2- [D,A,]2- [D,A,]6 | %5
[M:1/4] [D,A,]2 |[M:6/4] [C,=A,]3 [C,A,] [C,A,]2 [F,,F,]2 [F,,F,]2 [F,,F,]2 | %7
 [B,,B,]6- [B,,B,]4 [D,B,]2 | [E,B,]3 E, E,2 E,2 E,2 E,2 |[M:5/4] A,2- A,2- A,6 |[M:1/4] A,2 | %11
[M:6/4] [D,A,]2 D,2 D,2 D,4 D,2 | [A,,A,]2 [A,,A,]2 [A,,A,]2 [A,,A,]4[K:treble] [A,E]2 | G6 z6 | %14
[M:5/4][K:bass] [D,A,]2 [D,A,]2 [D,=G,]2 D,4 |[M:1/4] A,2 |[M:6/4] B,2 D2 B,2 A,2 D2 A,2 | %17
 G,2 C2 G,2 F,2 B,2 A,2 |[M:7/4] E,2 E,2 [E,B,]2 [A,C]6 [D,A,]2 | %19
[M:5/4] [D,A,]2- [D,A,]2- [D,A,]6 |] %20
V:3
 x12 | x12 | [A,C]6- [A,C]4 [DF]2 | x12 |[M:5/4] x10 |[M:1/4] x2 |[M:6/4] x12 | x12 | x12 | %9
[M:5/4] x10 |[M:1/4] x2 |[M:6/4] z2 A,2 A,2 [DFA]4 [A,DF]2 | x12 | z2 C2 C2 B4 c2 |[M:5/4] x10 | %15
[M:1/4] x2 |[M:6/4] x12 | x12 |[M:7/4] x14 |[M:5/4] x10 |] %20
V:4
 x12 | x12 | A,,12 | x12 |[M:5/4] x10 |[M:1/4] x2 |[M:6/4] x12 | x12 | x12 |[M:5/4] x10 | %10
[M:1/4] x2 |[M:6/4] x12 | x10[K:treble] x2 | [A,C]2 A,2 A,2 [A,EG]4 [A,G]2 |[M:5/4][K:bass] x10 | %15
[M:1/4] x2 |[M:6/4] x12 | x12 |[M:7/4] x14 |[M:5/4] x10 |] %20

